X:1
T:Dream Shadows
M:3/4
L:1/8
R:Waltz
N:Transcribed by Frank Maloy, based on the playing of the
N:East Texas Serenaders
B:Stephen F. Davis - Devil's Box, vol. 31, No. 4, Winter 1997 (p. 23)
Z:AK/Fiddler's Companion
K:Cmin
G,2C2D2|E2D2C2|"G7"D2G4-|G4 G2|"Cm"G2c2d2|e2ed2c2|
"G7"g6-|g4 ^fg|"Eb"b4 g=f|e2 cd ef|"F7"g3 g fe|c6|g4f2|
g4 f2|c'4 f2|"Bb"b6|"Eb"B6|"G7"=B6|"C7"cd c=B {_Bc}B=A|_A3 G AB|
G4 FE|C6-|C B cd cB|"Bb7"G4 FB|G3 FD|"Eb"E4F2|G4 GF|
"F7"=A G3 F2|E C3-C E|"Bb7"F6-|F2 FG A=A|"Eb"B6|"G7"[G6=B6]|
"C7"cd c=B {_Bc}B=A|_A3 G AB|"F7"G4 AB|G3 FE|c6-|c4 CD|"Ab"EF _GA -AB|
"D7"d4 cd|"Eb"fe3 {Bc}B=A|"Caug"_A3G AB|"F7"G3 F GF|"Bb"B3 G BG|"Eb"E6-|
E2 B,C EG|"Bb7"B3 {Bc}=A _AD|
G3 F DB,|"Eb6"C6-|C2 B,C DF|"Bb7"B3 {Bc}=A _AD|G4 F_G|"Eb"=G6-|
G2 GA B=B|"Ab"c6|"B7"=B6|"Eb"_B2c2d2|"C7"c6|"F7"G4 FE|G4 FE|"Bb7"c4F2|
B3 G A=A|"Eb"B6|"G7"[G6=B6]|"C7"cd c=B {_Bc}B=A|_A3 G AB|"F7"G4 AB|
G4 FE|c6-|c4 CD|"Ab"E2 {FE}D2E2|"D7"d4 cd|"Eb"fe3 {Bc}B=A|
"Caug"_A3 G AB|"F7"G3 F GF|"Bb7"B3 G BG|"Eb"E6|B,C DE FG|"Bb7"B3 =A _AD|
G3 F DB, |CD EF GB|"Eb"c4=B2|"Bb7"c4 =B2|_B6|"Eb"B6|"G7"=B6|
"C7"c3 =B _B=A|_A4 G2|"F7"G3 _G FG|=G4 _G F=G|c6-|c6|"Ab"E2D2E2|
"D7"d4 cd|"Eb"f2eB2|"Caug"A4 G2|"F7"G4 CG|"Bb7"B4c2|"Eb"e6-|
e3 B cB|"Eb"e2B2B2|"G7"d2 =B3G|=B4 G2|"Caug"A3 G FG|A3 G FE|
"Ab"c6-|c4 CD|E2 {FE}D2E2|"D7"d4 cd|"Eb"f e3 {Bc}B=A|
"Caug"_A3 G AB|"F7"G3 F GF|"Bb7"B3 GBG|"Eb"EF GB ce|g6||

